!!!COM: Palestrina, Giovanni Perluigi da
!!!OPR: Missa Benedicta es
!!!OMD: Credo
!!!OTL: homines
**kern	**kern	**kern	**kern	**kern	**kern
*Ibass	*Ibass	*Itenor	*Icalto	*Icalto	*Icant
!Bassus 2	!Bassus 1	!Tenor	!Altus 2	!Altus 1	!Cantus
*clefF4	*clefF4	*clefGv2	*clefG2	*clefG2	*clefG2
*k[]	*k[]	*k[]	*k[]	*k[]	*k[]
*G:mix	*G:mix	*G:mix	*G:mix	*G:mix	*G:mix
*M4/2	*M4/2	*M4/2	*M4/2	*M4/2	*M4/2
=58	=58	=58	=58	=58	=58
2D	0r	1r	1d	1f	1a
2D	.	.	.	.	.
1F	.	1c	1r	1f	1a
=59	=59	=59	=59	=59	=59
4C	1C	1c	1g	2e	2.g
4D	.	.	.	.	.
4E	.	.	.	2e	.
4F	.	.	.	.	4a
2G	2GG	2B	1g	[1d	2b
2G	2GG	2B	.	.	2g
=60	=60	=60	=60	=60	=60
1D	1D	1A	2f	1d]	1a
.	.	.	2f	.	.
2r	2.AA	1A	1e	1r	1cc
2A	.	.	.	.	.
.	4BB	.	.	.	.
=61	=61	=61	=61	=61	=61
2E	2C	0G	1e	1g	2cc
2E	2C	.	.	.	2cc
1G	1GG	.	[1d	2g	1b
.	.	.	.	2g	.
=62	=62	=62	=62	=62	=62
4D	2r	1r	1d]	1f	2a
4E	.	.	.	.	.
4F	2D	.	.	.	2a
4G	.	.	.	.	.
1A	2AA	1c	1r	1e	1a
.	2AA	.	.	.	.
=63	=63	=63	=63	=63	=63
2.E	1C	2c	1g	1e	2.g
.	.	2c	.	.	.
4F	.	.	.	.	4a
2G	4GG	1B	2g	[1d	4b
.	4AA	.	.	.	4cc
[2D	4BB	.	2g	.	[2dd
.	4C	.	.	.	.
=64	=64	=64	=64	=64	=64
4D]	1D	2A	1f	1d]	4dd]
4E	.	.	.	.	4cc
4F	.	2A	.	.	2.a
4D	.	.	.	.	.
2E	1AA	1A	2e	[1c	.
.	.	.	.	.	4b
2C	.	.	2e	.	[2cc
=65	=65	=65	=65	=65	=65
2.E	1C	[0G	1e	1c]	2cc]
.	.	.	.	.	4b
4F	.	.	.	.	4a
1G	1GG	.	[1d	2r	1b
.	.	.	.	2d	.
=66	=66	=66	=66	=66	=66
1GG	2r	1G]	1d]	0r	1dd
.	2G	.	.	.	.
1r	2A	2r	1r	.	1cc
.	2F	2A	.	.	.
=67	=67	=67	=67	=67	=67
0r	2.G	2B	1r	0d	1b
.	.	2G	.	.	.
.	4F	.	.	.	.
.	2D	2A	2r	.	1a
.	2F	[2d	2A	.	.
=68	=68	=68	=68	=68	=68
1r	1E	2d]	2B	1G	1g
.	.	2c	2G	.	.
2r	1D	1d	2A	1r	1f
2D	.	.	[2d	.	.
=69	=69	=69	=69	=69	=69
2E	0r	1G	4d]	1g	1e
.	.	.	4c	.	.
2C	.	.	2.c	.	.
2.D	.	2r	.	1f	1d
.	.	.	4B	.	.
.	.	2D	[2B	.	.
4C	.	.	.	.	.
=70	=70	=70	=70	=70	=70
2AA	1r	2E	4B]	2e	1r
.	.	.	4A	.	.
2C	.	2C	1A	2e	.
1BB	2r	1D	.	2d	1dd
.	2G	.	2G	4c	.
.	.	.	.	4B	.
=71	=71	=71	=71	=71	=71
1AA	2A	1A	2.c	2e	1cc
.	2F	.	.	2A	.
.	.	.	4d	.	.
2GG	2.G	2.B	4e	1r	1b
.	.	.	4f	.	.
2G	.	.	2g	.	.
.	4F	4c	.	.	.
=72	=72	=72	=72	=72	=72
2A	2D	1d	4f	2r	1a
.	.	.	4e	.	.
2F	2F	.	1d	2A	.
1G	1E	1e	.	2B	1g
.	.	.	2c	2G	.
=73	=73	=73	=73	=73	=73
2r	1D	2r	2.d	2A	1f
2D	.	2A	.	1d	.
.	.	.	4c	.	.
2E	2r	2G	2B	.	1e
2C	2AA	[2A	2A	2c	.
=74	=74	=74	=74	=74	=74
[0D	2BB	4A]	2r	1B	2.d
.	.	4G	.	.	.
.	2GG	2G	2d	.	.
.	.	.	.	.	4e
.	2.D	2F	2d	1A	4f
.	.	.	.	.	4g
.	.	2D	4c	.	[2a
.	4E	.	4B	.	.
=75	=75	=75	=75	=75	=75
1D]	1F	2r	1A	1d	2a]
.	.	2A	.	.	2f
2r	1E	2B	2G	2e	2g
2AA	.	2A	2c	2c	[2a
=76	=76	=76	=76	=76	=76
2BB	[0D	2F#	2B	1d	4a]
.	.	.	.	.	4g
2GG	.	2G	2.d	.	1g
1D	.	1A	.	1d	.
.	.	.	4c	.	.
.	.	.	2A	.	2f#
=77	=77	=77	=77	=77	=77
0GG	0D]	0G	0B	0d	0g
=78	=78	=78	=78	=78	=78
0r	0C	1G	0c	0e	0g
.	.	1c	.	.	.
=79	=79	=79	=79	=79	=79
0r	1F	1.A	1c	1f	1a
.	1D	.	1d	1f	1a
.	.	[2d	.	.	.
=80	=80	=80	=80	=80	=80
0r	1G	2d]	1B	1g	1b
.	.	1G	.	.	.
.	1C	.	1e	1g	1cc
.	.	[2c	.	.	.
=81	=81	=81	=81	=81	=81
0GG	0G	2c]	0d	1g	1dd
.	.	4B	.	.	.
.	.	4A	.	.	.
.	.	1B	.	1d	2r
.	.	.	.	.	[2g
=82	=82	=82	=82	=82	=82
1C	1E	2c	1c	1.e	2g]
.	.	2G	.	.	1cc
1AA	1A	1c	2e	.	.
.	.	.	2e	2c	[2a
=83	=83	=83	=83	=83	=83
1D	1F	1A	2.d	2.f	2a]
.	.	.	.	.	2.dd
.	.	.	4c	4e	.
1GG	1G	2B	4B	1d	.
.	.	.	4G	.	4cc
.	.	[2d	[2g	.	2b
=84	=84	=84	=84	=84	=84
0D	1A	2d]	2g]	0d	0a
.	.	4c	4f#	.	.
.	.	4B	4e	.	.
.	1D	4A	1f#	.	.
.	.	4G	.	.	.
.	.	2A	.	.	.
=85	=85	=85	=85	=85	=85
0GG	1r	1G	1g	1d	0b
.	[1G	1B	1d	1r	.
=86	=86	=86	=86	=86	=86
1C	1G]	2c	1e	0e	1r
.	.	2.c	.	.	.
1AA	1A	.	1c	.	[1a
.	.	4B	.	.	.
.	.	4A	.	.	.
.	.	4G	.	.	.
=87	=87	=87	=87	=87	=87
1D	1F	1A	1d	1f	1a]
1GG	[1G	1G	2.B	1d	1b
.	.	.	4c	.	.
=88	=88	=88	=88	=88	=88
0r	1G]	0r	2d	1B	1g
.	.	.	2.e	.	.
.	1C	.	.	2c	1e
.	.	.	4d	.	.
.	.	.	4c	[2e	.
.	.	.	4B	.	.
=89	=89	=89	=89	=89	=89
0r	1D	0r	2A	4e]	2f
.	.	.	.	4d	.
.	.	.	2F	1d	2.a
.	1E	.	1G	.	.
.	.	.	.	.	4g
.	.	.	.	2c#	[2g
=90	=90	=90	=90	=90	=90
1r	0D	0A	1A	0d	2g]
.	.	.	.	.	4f#
.	.	.	.	.	4e
[1D	.	.	1D	.	2f#
.	.	.	.	.	2f#
=91	=91	=91	=91	=91	=91
1D]	0GG	1B	1d	0r	[0g
1E	.	1G	1B	.	.
=92	=92	=92	=92	=92	=92
1C	0r	1E	1c	1r	1g]
1D	.	2F	2A	1d	1r
.	.	[2A	2F	.	.
=93	=93	=93	=93	=93	=93
2.C	0r	4A]	1G	1e	1r
.	.	4G	.	.	.
.	.	1G	.	.	.
4BB	.	.	.	.	.
1AA	.	.	[1A	1c	[1a
.	.	4F#	.	.	.
.	.	4E	.	.	.
=94	=94	=94	=94	=94	=94
1D	0D	1F#	1A]	2.d	1a]
.	.	.	.	4c	.
1GG	.	1G	1d	4B	1b
.	.	.	.	4G	.
.	.	.	.	[2g	.
=95	=95	=95	=95	=95	=95
1G	1E	2r	1B	4g]	1g
.	.	.	.	4f	.
.	.	1E	.	2.e	.
1A	1C	.	2c	.	1e
.	.	.	.	4d	.
.	.	[2A	2e	4c	.
.	.	.	.	4B	.
=96	=96	=96	=96	=96	=96
1F	1D	4A]	1d	2A	2f
.	.	4D	.	.	.
.	.	2.d	.	2A	2.a
1G	1GG	.	2.B	1d	.
.	.	4c	.	.	4g
.	.	2B	.	.	[2g
.	.	.	4c	.	.
=97	=97	=97	=97	=97	=97
1A	0D	0A	0d	2r	2g]
.	.	.	.	2.d	4f#
.	.	.	.	.	4e
1D	.	.	.	.	1f#
.	.	.	.	4c	.
.	.	.	.	2A	.
=98	=98	=98	=98	=98	=98
0D	0GG	0G	0d	0B	0g
*-	*-	*-	*-	*-	*-
!!!CDT: 1525/^1526/-1594/2/2
!!!OCY: Italia
!!!AGN: Mass (Parody)
!!!AST: renaissance, vocal
!!!ASW: Motet 1520 (Josquin)
!!!PWK: Masses, Book 11
!!!RNB: Cadence finals: D
!!!YOR: Le Opere Complete, v. 28, p. 222
!!!YOO: Rome, Italy: Fratelli Scalera
!!!END: 1992//
!!!EED: John Miller
!!!YEC: Copyright 2000, John Miller
!!!YEN: United States of America
!!!YEM: Rights to all derivative electronic formats reserved.
!!!YEM: Refer to licensing agreement for further details.
!!!YEM: This file must be accompanied by the licensing agreement.
!!!YEM: A copy of the licensing agreement may be found at http://www.music-cog.ohio-state.edu/HumdrumDatabases/Palestrina/license.txt
!!!EMD: converted to Humdrum by Bret Aarden
